X:135
T:Jim Ward's
R:jig
S:https://thesession.org/tunes/793
M:6/8
L:1/8
Z:MichaelBolton
K:Dmixolydian
|: G3 GAB | AGE GED | GGG AGE |
GED DEF | G3 GAB | AGE GAB |
cBA BGE |1 DED DEF:|2 DED D2B||
|:cBA BAG | ABA AGB | cBA BGE |
DED GAB |cBA BAG | ABA ABc |
dcB AGE |1 GED D2B :|2 GED DEF || G6|

